X:3
T:Chameleon
C:Herbie Hancock
L:1/8
M:C
I:linebreak $
K:Ab
z G,A,=A, |: B,2 AB z CD=D | E2 Bd z G,A,=A, :|:$ B,2 AB z CD=D | E2 Bd z G,A,=A, :|:$
"Bbm" BB AA BB d2 |"Eb7" B4 z BAF |"Bbm" AB z2 z4 |"Eb7" de z2 z4 :|:$"Bbm" BB AA BB d2 |
"Eb7" B4 z BAF |"Bbm" AB z2 z4 |"Eb7" de z2 z4 :|:$"Bbm" z f e2 ed de |"Eb7" dBFDB, BAF |
"Bbm" AB z2 z4 |"Eb7" de z2 z4 :|:$"Bbm" z f e2 ed de |"Eb7" dBFDB, BAF |"Bbm" AB z2 z4 |
"Eb7" de z2 z4 :|$"Bbm" z f e2 ed de | dBFD B,4 | z8 |]

